X: 4
T:Hommage \`a Edmond Pariso (Pariseau)
R:reel
Z:transcribed to ABC by Debby Knight
M:C|
L:1/8
K:D
D DEFG|"D"ADDA DDAD | DDAD "G"B2AG | "D"FADE FDAD | FADF "D#dim"GAGF |
"A7/E"E3E EDEF |"A"E3A ABAG | "D"F2E2 DFED |"A"A,3 D DEFG|
"D"ADDA DDAD | DDAD "G"B2AG | "D"FADE FDAD | FADF "D#dim"GAGF |
"A7/E"E3E EDEF |"A"A2G2 F2E2| "D"DBAG "A"FGEF |"D"D2F2 "D7" E2 D2 |]
|: "G"d4 "B/F#"B4 |"Em7"G3D "A7"G2B2 | "D"A3A "A/C#"ABAF | "Bm"D2F2 E2D2 |"A"E2EE EDEF |
"A"A2G2 F2E2 |1 "D"FEDF "A"AFAB | "D"A2F2 "D+/F#"E2D2 :| [2 "D"DBAG "A"F2E2| "D"D3 |]
%%text 08/6/05 

#include "LeftHeader.h"
% ---------- set 75 ----------
% Jimmy in the Swamp (G) / Kansas City (A) / Old Bell Cow (A)
%%text Set 75 (harmony)
%%vskip -1cm
